X: 5132
T: Bridgie Con Matt's
R: slide
M: 12/8
K: Dmajor
B|:c2B B2A FAF E2A|F2A E2A F2A E2c|
c2B B2A FAF E2A|A2B c2B A3 A2B:|
|:A2B cBc e2f ecB|A2B c2B cBA F2B|
A2B cBc e2c ecB|A2B c2B A3 A2B:|

